X: 38255
T: St Louis Stagger, The
R: jig
M: 6/8
K: Dmajor
de|:f2f efa|d3-def|gfe dcB|BAB cdG|
f2f efa|d3 AB/c/d|efg fed|ABc cde:|
|:~f3 afe|dAd -def|~g3 gfd|~e3 efg|
~a3 afe|dBB Bcd|efg fed|ABc cde:|

